svgs/sharp-duotone-thin/square-root-variable.svg

<svg xmlns="http://www.w3.org/2000/svg" viewBox="0 0 576 512"><!--! Font Awesome Pro 7.1.0 by @fontawesome - https://fontawesome.com License - https://fontawesome.com/license (Commercial License) Copyright 2025 Fonticons, Inc. --><path opacity=".4" fill="currentColor" d=""/><path fill="currentColor" d="M346.2 32l229.8 0 0 16-218.2 0-142.2 426.5-1.8 5.5-10.7 0-2.2-4.4-117.8-235.6-83.1 0 0-16 92.9 0 2.2 4.4 111.4 222.7 137.9-413.7 1.8-5.5zM400 228.7l5.7 5.7 74.3 74.3 74.3-74.3 5.7-5.7 11.3 11.3-5.7 5.7-74.3 74.3 80 80-11.3 11.3-5.7-5.7-74.3-74.3-74.3 74.3-5.7 5.7-11.3-11.3 80-80-74.3-74.3-5.7-5.7 11.3-11.3z"/></svg>

<svg xmlns="http://www.w3.org/2000/svg" viewBox="0 0 576 512"><!--! Font Awesome Pro 6.7.2 by @fontawesome - https://fontawesome.com License - https://fontawesome.com/license (Commercial License) Copyright 2024 Fonticons, Inc. --><defs><style>.fa-secondary{opacity:.4}</style></defs><path class="fa-secondary" d=""/><path class="fa-primary" d="M346.2 32l5.8 0 216 0 8 0 0 16-8 0L357.8 48 215.6 474.5l-1.8 5.5-10.7 0-2.2-4.4L83.1 240 8 240l-8 0 0-16 8 0 80 0 4.9 0 2.2 4.4L206.5 451.1 344.4 37.5l1.8-5.5zM400 228.7l5.7 5.7L480 308.7l74.3-74.3 5.7-5.7L571.3 240l-5.7 5.7L491.3 320l74.3 74.3 5.7 5.7L560 411.3l-5.7-5.7L480 331.3l-74.3 74.3-5.7 5.7L388.7 400l5.7-5.7L468.7 320l-74.3-74.3-5.7-5.7L400 228.7z"/></svg>
